svg/fluentui-system-icons/ic_fluent_calendar_search_20_filled.svg

<svg width="20" height="20" viewBox="0 0 20 20" fill="none" xmlns="http://www.w3.org/2000/svg">
<path d="M17 14.5V7H3V9.46776C3.60248 9.16835 4.28158 9 5 9C7.48528 9 9.5 11.0147 9.5 13.5C9.5 14.1947 9.34257 14.8527 9.06144 15.4401L10.6213 17H14.5C15.8807 17 17 15.8807 17 14.5ZM17 5.5C17 4.11929 15.8807 3 14.5 3H5.5C4.11929 3 3 4.11929 3 5.5V6H17V5.5ZM7.09608 16.3032C6.51179 16.7408 5.78617 17 5 17C3.067 17 1.5 15.433 1.5 13.5C1.5 11.567 3.067 10 5 10C6.933 10 8.5 11.567 8.5 13.5C8.5 14.2862 8.2408 15.0118 7.80319 15.5961L10.3536 18.1465C10.5488 18.3418 10.5488 18.6584 10.3535 18.8536C10.1583 19.0489 9.8417 19.0489 9.64644 18.8536L7.09608 16.3032ZM7.5 13.5C7.5 12.1193 6.38071 11 5 11C3.61929 11 2.5 12.1193 2.5 13.5C2.5 14.8807 3.61929 16 5 16C6.38071 16 7.5 14.8807 7.5 13.5Z" fill="#212121"/>
</svg>

<svg xmlns="http://www.w3.org/2000/svg" width="20" height="20"><path d="M17 14.5V7H3v2.468a4.5 4.5 0 0 1 6.061 5.972l1.56 1.56H14.5a2.5 2.5 0 0 0 2.5-2.5Zm0-9A2.5 2.5 0 0 0 14.5 3h-9A2.5 2.5 0 0 0 3 5.5V6h14v-.5ZM7.096 16.303a3.5 3.5 0 1 1 .707-.707l2.55 2.55a.5.5 0 0 1-.707.708l-2.55-2.55ZM7.5 13.5a2.5 2.5 0 1 0-5 0 2.5 2.5 0 0 0 5 0Z"/></svg>
